X: 30294
T: Old Man Dillon
R: jig
M: 6/8
K: Aminor
|:(A/G/)|E>AA ABd|edB {d}c2 A|BGG DGG|Bdc BAG|
E>AA ABd|ede a2 g|edc Bcd|ecA A2:|
|:g|gef g2 a|gef g2 d|B>GG D>GG|Bdc BAG|
[1 gef g2 a|gef g2 d|e>dc Bcd|e>cA A2:|
[2 E>AA ABd|ede a2 e|edc Bcd|ecA A2||

